X:1
T:Desecration
T:Desecration
T:(A Rag Humoresque.)
T:Felix Arndt
T:Copyright 1914 by G. Ricordi &amp; Co
T:Copyright 1914 by G. Ricordi &amp; Co
T:Copyright 1914 by G. Ricordi &amp; Co
T:Copyright 1914 by G. Ricordi &amp; Co
T:Copyright 1914 by G. Ricordi &amp; Co
T:Copyright 1914 by G. Ricordi &amp; Co
T:Copyright 1914 by G. Ricordi &amp; Co
C:Felix Arndt
Z:Copyright 1914 by G. Ricordi & Co
%%score { ( 1 3 ) | ( 2 4 5 ) }
L:1/8
Q:1/4=170
M:4/4
K:F
V:1 treble nm="Piano" snm="Pno."
V:3 treble 
V:2 bass 
V:4 bass 
V:5 bass 
V:1
"^Not too fast""^HUMORESQUE""^(Dvořák)"!p! FG FG FG FG | A"^To T." [Fc]2 [FAd]- [FAd]c AF | %2
 [FBdf]2 [EBde]2 [GBdg]2 [FBdf]2 | [EBe] [GBg]2 [FBdf]- [FBdf]>f [FBd]2 | %4
 [FAc] [FAc]2 [FAd]- [FAd]>d [FAc]2 | [FAf]d cA FE DC | [=B,FG] [B,FG]2 [B,FA]- [B,FA]>A [B,FG]2 | %7
 [CEc]A GE DG EC | FG FG FG FG | A [Fc]2 [FAd]- [FAd]c AF | [FBdf]2 [EBde]2 [GBdg]2 [FBdf]2 | %11
 [EBe] [GBg]2 [FBdf]- [FBdf]>f [FBd]2 | [FAc] [FAc]2 [FAf]- [FAf]>f F2 | %13
 [=B,FG] [B,FG]2 [FAd]- [FAd]>c [CEG]2 | [A,F]F D[B,C]- [B,C]>D [B,C]2 | [A,F]2 C=B, CC FG | %16
 [FA]3 [Aca]-!f! [Aca][Ac] [eg]2 | !>![Gcg]2 z2 z2 z2 | z2 [df]F [Fce] [FBd]3 | %19
 !>![D^FAd]2 z2 z2 z2 | z2 [GB]2 [Ac] [Bd]3 | [EA]>^G [EA]>G A [Ec]3 | [FA]>^G A>G [CEA] [B,E=G]3 | %23
 [A,F]2 C>=B, CC FG | [FA]3 [Aca]- [Aca][Ac] [eg]2 | [Gcg]2 z2 z4 | z2 [df]F [Fce] [FBd]3 | %27
 !>![D^FAd]2 z2 z2 z2 | z2 [GB]2 [Ac] [Bd]3 | [EA]>^G [EA]>G A [Ec]3 | [FA]>^G A>G [CEA] [B,E=G]3 | %31
 [A,F]>C D>C D>C D>C |S FG FG FG FG | A [Fc]2 [FAd]- [FAd]c AF | [FBdf]2 [EBde]2 [GBdg]2 [FBdf]2 | %35
 [EBe] [GBg]2 [FBdf]- [FBdf]>f [FBd]2 | [FAc] [FAc]2 [FAd]- [FAd]>d [FAc]2 | [FAf]d cA FE DC | %38
 [=B,FG] [B,FG]2 [B,FA]- [B,FA]>A [B,FG]2 | [CEc]A GE DG EC | FG FG FG FG | %41
 A [Fc]2 [FAd]- [FAd]c AF | [FBdf]2 [EBde]2 [GBdg]2 [FBdf]2 | %43
 [EBe] [GBg]2 [FBdf]- [FBdf]>f [FBd]2 | [FAc] [FAc]2 [_Ac_a]- [Aca]>a [Ac]2 | %45
 =B [_Ad_a]2 [Gg]- [Gg]>g [G_Bd]2 | [FAf]f c [EBd]2 c [EBd]2 | %47
 [FAcf]4"_D. S." [fac'f'] z z2!dacoda! ||[K:Ab] F2 G2 A G3 | [A,_DFA]6 GF | %50
 E>F [G,DE]>F (3EFE [G,B,]2 | C>F [CE]2- [CE]4 | F2 G2 A G3 | B2 A2 G2 F2 | E>F [G,DE]>F E2 [Gc]2 | %55
 [CA]2 ae cA EC | F2 G2 A2 G2 | B2 A2 G2 F2 | E>F [G,DE]>F (3EFE [G,B,]2 | C>F [CE]2- [CE]4 | %60
 F2 G2 A G3 | [B,B]2 [A,A]2 [G,G]2 [F,F]2 | F2 [EFe]3 F- [DFd]2 | [C=EBc]4{=b} [cc']2 z2!D.S.! || %64
[K:Eb]O x2"^2d RHAPSODY" =B[EGc]- [EGc]^F"^(Liszt)" [CEG]2 | C z C2 B, C3 | %66
 x2 =A[_DFB]- [DFB]=E [B,DF]2 | B,B, CE- E_D C2 | x2 =B[EGc]- [EGc]^F [CEG]2 | C z C2 B, C3 | %70
 x2 =A[_DFB]- [DFB]=E [B,DF]2 | B,A, G,B,- B,A, G,2 | x2 G^F GF G2 | x2 G^F GF G2 | x7 =E/G/ || %75
[K:F]!mf! [EBc]2 [EBd]2 [EBe]2 [FBf]2 | [GBg]2 [^F^f][Gg]- [Gg]e [EBd]c | %77
 [Fcf]2 [Gcg]2 [Afa]2 [Bfb]2 | [cfac']2 [=B=b][cc']- [cc']a gf | [Bb]2 [dd']2 [Gg]2 [Bb]2 | %80
 [Ee] [Gg]2 [CEBc]- [CEBc]2 z2 | z E FG z =B, CF | A, C2 F,- F,2 z2 | %83
 [G,G]2 [A,=A]2 [=B,=B]2 [Cc]2 | [Dd]2 [^C^c][DFd]- [DFd]=B [B,FA]G | [Cc]2 [DGd]2 [Ee]2 [Fcf]2 | %86
 [Gcg] [^Fc^f]2 [Gcg]- [Gcg]>g [Gce]2 || %87
[K:C] (3z"^RUSTLE OF SPRING" ce (3aec z2"^(Sinding)" [cea]2 | (3z ce (3gec z2 [FGd]2 | %89
 [Gce]^d e[Gcg]- [Gcg][^F^f] [Gcg]2 | [Ge]^d e[Gcg]- [Gcg]^f [Gcg]2 | (3z ce (3aec z2 [cea]2 | %92
 (3z ce (3gec z2 [FGd]2 | [GBe]^d e[Gcg]- [Gcg][^F^f] [GBg]2 | [GBe]^d e[GBg]- [GBg][^F^f] [GBg]2 | %95
 z2 (3[eg]b[eg] z2 [eg]2 | z2 (3[^dg]b[dg] z2 z2 | z2 (3[eg]b[eg] z2 [eg]2 | %98
 z2 (3[^dg]b[dg] z2 z2 | z2 (3[dg]b[dg] z2 [dgb]2 |{^c'} [dad']2 z2 [D^FAd]2 z2 | %101
 [GBdg]2 z2 z2 z2 | z3/2 G/ [DB]G [^DAB]2 B,2 | z2 (3[EG]B[EG] z2 [EGB]2 | z2 (3[EG]B[EG] z2 z2 | %105
 z2 z [EG_Be]- [EGBe]2 [EGBe]2 | z2 z [EG_Be]- [EGBe]2 [F_c_df]2 | z2 (3[_G_B]_d[GB] z2 [GB]2 | %108
 z2 (3[_G_B]_d[GB] z2 z2 | z2 z [^FAc^f]- [FAcf]2 [FAcf]2 | z2 z [^FAc^f]- [FAcf]2 [G_d_eg]2 | %111
 z2 (3[_Ac]_e[Ac] z2 [Ac]2 | z2 (3[_Ac]_e[Ac] z2 [Ace]2 | z2 (3[Gc=e]g[Gce] z2 (3[Gc=e]g[Gce] | %114
 z2 (3[Gce]g[Gce] z2 [Gce]2 | z2 (3[B,G]A[B,G] z2 (3[B,G]A[B,G] | z2 (3[B,G]A[B,G] z2 [B,FG]2 || %117
"^SCHERZO" A,2 (3^G,A,C"^(Chopin.)" E2 (3G,A,C | E6 z2 | [Aa]2 [DFAd]3 [Ee] [FAdf]2 | %120
 [EAce]2 (3^G,A,C E4 |"^POLONAISE""^(Chopin.)" x8 | x8 | [cc']g ae g [ca]2 a | [cc']g ec [Gg]d BG | %125
 [Cc]G AE G [CA]2 G | [CEc]2 [CEB]2 (3ABA [CEG]2 | [Gg]d eB d [Ge]2 d | [Gg]d BG [Dd]A ^FD | %129
 [G,G]D EB, D [G,B,E]2 D | [G,B,G]2 GG gG gG | [A,A]2 (3[CF]A,[CF] A,2 [B,B]2 | [Cc]4 [Dd]4 | %133
 [Ee]2 (3[Gc]E[Gc] E2 [^F^f]2 | [Gg]4 [Aa]4 | [B=fb][Aa] [Gg][Bfb]- [Bfb][Aa] [Gdg]2 | %136
 [cgc']4 [^cg^c']4 | [dgd']2 g'>^f' g'2 g>^f | g2 G>^F G4 | [cc']g ae g [ca]2 a | %140
 [cc']g ec [Gg]d BG | [Cc]G AE G [CA]2 G | [CEc]2 [CEB]2 (3ABA [CEG]2 | [Gg]d eB d [Ge]2 d | %144
 [Gg]d BG [Dd]A ^FD | [G,G]D EB, D [G,B,E]2 D | [G,B,G]2 GG gG gG || %147
"^2d RHAPSODY" [^F^f] [Gg]2 [=FB=f]- [FBf]G"^(Liszt)" gG | [^F^f] [Gg]2 [=FB=f]- [FBf]G gG | %149
 [^F^f] [Gg]2 [Gce]- [Gce]G gG | [^F^f] [Gg]2 [Gce]- [Gce]G gG | %151
 [^F^f] [Gg]2 [Afa]- [Afa]2 [GBfg]2 | [^F^f] [Gg]2 [Afa]- [Afa]2 [GBfg]2 | %153
 [^F^f] [Gg]2 [cegc']- [cegc']2 [Gceg]2 | [^F^f] [Gg]2 [cegc']- [cegc']4 |"^FUNERAL MARCH" x8 | %156
"^(Chopin.)" x8 | x8 | z8 | z8 | z8 | z8 | z8 | [A,CEA]3 G/A/ [A,DG]2 [A,DF]2 | %164
 [A,CE]>^D [A,CE]2 x4 | [CEA]2 [CEA] G/A/ [A,DG]2 [A,DF]2 | z3/2 ^D/ [A,CE]2 x4 | x8 | x8 | x8 | %170
 z8 ||[K:F] FG FG FG FG | A [Fc]2 [FAd]- [FAd]c AF | [FBdf]2 [EBde]2 [GBdg]2 [FBdf]2 | %174
 [EBe] [GBg]2 [FBdf]- [FBdf]>f [FBd]2 | [FAc] [FAc]2 [_Ac_a]- [Aca]>a [Ac]2 | %176
 =B [_Ad_a]2 [Gg]- [Gg]>g [G_Bd]2 | [FAcf]2 [F_d]>=c [Fd]>c [Fd]2 | %178
 [_G_B_g]2 [=Ec]>=B [Ec]>B [Ec]2 | [FAf]2 [f_d']>c' [fd']>c' [fd']2 | %180
 [_g_b_g']2 [e=gc']>=b [egc']>b [egc']2 | [faf']2 a'f' c'a fd | AF CA, z4 | %183
[I:staff +1] C[I:staff -1]F Ac fa c'f' | a'2 [FAf]2 [FAf]2 [FAf]2 | [FAf]2 z2 [faf']2 z2 | x8 |] %187
V:2
 F,,2 [A,C]2 C,,2 [A,C]2 | F,,2 [F,A,_E]2 F,,,2 [F,A,E]2 | B,,,2 [F,B,D]2 F,,,2 [F,B,D]2 | %3
 B,,,2 [F,B,D]2 F,,,2 [F,B,D]2 | [F,,C,]2 [A,C]2 C,,2 [A,C]2 | [D,A,D] z z2 z2 z2 | %6
 D,2 G,2 [G,,D,]2 G,2 | [C,_B,] z z2 z2 z2 | F,,2 [A,C]2 C,,2 [A,C]2 | %9
 F,,2 [F,A,_E]2 F,,,2 [F,A,E]2 | B,,,2 [F,B,D]2 F,,,2 [F,B,D]2 | B,,,2 [F,B,D]2 F,,,2 [F,B,D]2 | %12
 [F,,C,]2 [A,C]2 D,,2 [F,A,D]2 | D,2 G,2 C,,2 _B,2 | F,,2 C,2 C,,2 [C,E,]2 | %15
 [F,,C,]2 C,=B,, C,2 z2 | [F,,C,]2 [A,C]2 C,,2 [A,C]2 | [C,A,]2 ^G,A, B,=B, C^C | %18
 [B,,F,]2 [F,D]2 F,,2 [F,B,D]2 | !arpeggio![A,,^F,C]2 ^C,D, ^D,E, ^E,^F, | %20
 [G,,D,]2 [B,D]2 D,,2 [G,B,D]2 | [G,,E,]2 [B,C]2 C,,2 [E,B,C]2 | [F,,C,]2 [A,C]2 C,,2 C,2 | %23
 [F,,C,]2 C,2 C,2 z2 | [F,,C,]2 [A,C]2 C,,2 [A,C]2 | [C,A,]2 ^G,A, B,=B, C^C | %26
 [B,,F,]2 [F,D]2 F,,2 [F,B,D]2 | !arpeggio![A,,^F,C]2 ^C,D, ^D,E, ^E,^F, | %28
 [G,,D,]2 [B,D]2 D,,2 [G,B,D]2 | [G,,E,]2 [B,C]2 C,,2 [E,B,C]2 | [F,,C,]2 [A,C]2 C,,2 C,2 | %31
 [F,,C,]2 C,2 D,2 E,2 | F,,2 [A,C]2 C,,2 [A,C]2 | F,,2 [F,A,_E]2 F,,,2 [F,A,E]2 | %34
 B,,,2 [F,B,D]2 F,,,2 [F,B,D]2 | B,,,2 [F,B,D]2 F,,,2 [F,B,D]2 | [F,,C,]2 [A,C]2 C,,2 [A,C]2 | %37
 [D,A,D] z z2 z2 z2 | D,2 G,2 [G,,D,]2 G,2 | [C,_B,] z z2 z2 z2 | F,,2 [A,C]2 C,,2 [A,C]2 | %41
 F,,2 [F,A,_E]2 F,,,2 [F,A,E]2 | B,,,2 [F,B,D]2 F,,,2 [F,B,D]2 | B,,,2 [F,B,D]2 F,,,2 [F,B,D]2 | %44
 F,,2 [A,C]2 D,,2 [_A,CF]2 | G,,2 [=B,F]2 C,,2 [_B,E]2 | [G,,C,]2 [A,C]2 C,,2 [B,C]2 | %47
 F,,,2 C,2 x4 ||[K:Ab] F,2 G,2 A, G,3 | z =A,, B,,>A,, B,,2 z2 | B,,2 E,2 E,,2 E,2 | %51
 G,,2 E,2 A,G, F,E, | F,2 G,2 A, G,3 | B,2 A,2 G,2 F,2 | B,,2 E,2 E,,2 [E,D]2 | [A,,E,]2 z2 z2 z2 | %56
 F,2 G,2 A,2 G,2 | B,2 A,2 G,2 F,2 | B,,2 E,2 E,,2 E,2 | G,,2 E,2 (A,G, F,E,) | F,2 G,2 A, G,3 | %61
 B,,2 F,2 E,2 D,2 | [F,B,]2 G,4 G,2 | C,,2 =G,2 C,2 z2 ||[K:Eb] x2 =B,C- C^F, G,2 | %65
 C, z [E,G,]2 x [E,G,]3 | x2 =A,B,- B,=E, F,2 | B,,B,, C,E,- E,_D, C,2 | x2 =B,C- C^F, G,2 | %69
 C, z [E,G,]2 x [E,G,]3 | x2 =A,B,- B,=E, F,2 | B,,A,, G,,B,,- B,,A,, G,,2 | x2 G,^F, G,F, G,2 | %73
 x2 G,^F, G,F, G,2 | !>![C,=E,G,]4 z C,/E,/ G,/C/ x ||[K:F] G,,2 [B,C]2 C,2 D,2 | %76
 [G,,E,]2 [B,CE]2 C,,2 [B,C]2 | F,,2 [A,C]2 C,,2 [A,CF]2 | [F,,C,]2 [A,CF]2 C,,2 [A,C]2 | %79
 G,,2 [B,E]2 C,,2 [B,E]2 | G,,2 [G,B,C]2 C,,C, D,E, | F,,2 C,2 C,,2 C,2 | F,,2 C,2 C,,D,, E,,F,, | %83
 G,,2 =A,,2 =B,,2 C,2 | [D,,D,]2 [G,=B,]2 G,,,2 G,2 | C,,2 G,2 C2 D2 | E ^D2 E- E2 C2 || %87
[K:C]"^marcato la melodia" x8 | x8 | x8 | x8 | x8 | x8 | x8 | x8 | x8 | x8 | x8 | x8 | x8 | %100
 x4 [D,^F,C]2 z2 | !arpeggio![G,,D,B,]2 DE- EB, D2 | C2 G,2 F,2 B,,2 |{/E,,} E,4 ^F,2 G,2 | %104
 B,4 E,2 (3^F,G,A, | _B,A, G,^C- C=B, C2 | _B,A, G,^C- C2 [_A,_D]2 | _G,4 _A,2 _B,2 | %108
 _D4 _G,2 (3_A,=A,=B, | CB, A,_E- ED E2 | CB, A,_E- ED [_B,E]2 | !>!_A,4 !>!_B,2 !>!C2 | %112
 !>!_E4 !>!_A,4 | !>!=E4 !>!D4 | !>!C4 !>!B,2 !>!A,2 |{/G,,} !>!G,4 !>!^F,4 | !>!=F,4 E,2 D,2 || %117
 A,,2 (3^G,,A,,C, E,2 (3G,,A,,C, | E,6 z2 | A,,,2 [D,A,B,]4 [D,A,B,]2 | A,,,2 (3^G,,A,,C, E,4 | %121
 !trill(!TG,8 | ^F,G, ^G,A, ^A, B,3 | C,2 [G,CE]2 G,,2 [G,CE]2 | C,2 [G,CE]2 G,,2 [G,B,F]2 | %125
 C,,2 G,2 G,,,2 G,2 | C,,2 B,2 A,2 G,2 | G,,2 [B,D]2 D,,2 [B,D]2 | G,,2 [B,D]2 D,,2 [^F,C]2 | %129
 G,,2 D,2 D,,2 D,2 | G,,2 G,2 G,2 G,2 | z2 [F,,C,]2 [F,,C,]2 [E,,E,]2 | %132
 z2 [A,,E,A,]2 z2 [G,,D,G,]2 | z2 [C,G,C]2 [C,G,C]2 [B,,B,]2 | z2 [E,B,E]2 z2 [_E,A,_E]2 | %135
 D,2 [B,F]2 G,,2 [B,F]2 |[K:treble] [EG]2 [EG][EG] [_EGA]2 [EGA][EGA] | [DFB]2 x2 x4 | %138
[K:bass] G,>^F, G,2 G,,2 z2 | C,2 [G,CE]2 G,,2 [G,CE]2 | C,2 [G,CE]2 G,,2 [G,B,F]2 | %141
 C,,2 G,2 G,,,2 G,2 | C,,2 B,2 A,2 G,2 | G,,2 [B,D]2 D,,2 [B,D]2 | G,,2 [B,D]2 D,,2 [^F,C]2 | %145
 G,,2 D,2 D,,2 D,2 | G,,2 G,2 G,2 G,2 || D,2 [G,B,]2 G,,2 [G,B,F]2 | D,2 [G,B,]2 G,,2 [G,B,F]2 | %149
 C,2 [G,C]2 G,,2 [G,CE]2 | C,2 [G,C]2 G,,2 [G,CE]2 | D,,2 [G,B,F]2 G,,,2 [G,B,F]2 | %152
 D,,2 [G,B,F]2 G,,,2 [G,B,F]2 | C,2 [G,CE]2 G,,2 [G,CE]2 | C,2 [G,CE]2 G,,C, E,G, | %155
 [E,A,]4 [F,A,]3 A, | [E,A,]6 z2 | [E,A,]4 [F,A,]3 A, | [A,,C,E,A,]6 z2 | [E,A,]4 [F,A,]3 A, | %160
 [E,A,]2 A,E, [F,C]2 [F,B,]2 | [E,B,] [E,A,]2 [F,A,]- [F,A,]^G, [F,A,]2 | [E,A,]6 z2 | %163
 [A,,E,]4 D,2 D,2 | A,,2 A,,2 [A,C]4 | [A,,E,]2 [A,,E,]2 D,2 D,2 | z2 [A,,E,]2 [A,C]4 | %167
 [E,A,]4 [F,A,]3 A, | [E,A,]2 A,E, [F,C]2 [F,=B,]2 | [E,B,] [E,A,]2 [F,A,]- [F,A,]^G, [F,A,]2 | %170
 A,2 C2 D2 E2 ||[K:F] F,,2 [A,C]2 C,,2 [A,C]2 | F,,2 [F,A,_E]2 F,,,2 [F,A,E]2 | %173
 B,,,2 [F,B,D]2 F,,,2 [F,B,D]2 | B,,,2 [F,B,D]2 F,,,2 [F,B,D]2 | F,,2 [A,C]2 D,,2 [_A,CF]2 | %176
 G,,2 [=B,F]2 C,,2 [_B,E]2 | [F,C]2 [_D,=B,]2 [D,B,]2 [D,B,]2 | [_G,_D]2 [C,_B,]2 [C,B,]2 [C,B,]2 | %179
 [F,C]2 [_DF=B]2 [DFB]2 [DFB]2 | x8 | x8 | x4 F,C, F, A, | z8 | z2 [F,C]2 [F,C]2 [F,C]2 | %185
 [F,C]2 z2 x2 z2 |{/!fermata!F,} !fermata!F,8 |] %187
V:3
 x8 | x8 | x8 | x8 | x8 | x8 | x8 | x8 | x8 | x8 | x8 | x8 | x8 | x8 | x8 | x8 | x8 | x8 | x8 | %19
 x8 | x8 | x8 | x8 | x8 | x8 | x8 | x8 | x8 | x8 | x8 | x8 | x8 | x8 | x8 | x8 | x8 | x8 | x8 | %38
 x8 | x8 | x8 | x8 | x8 | x8 | x8 | x8 | x8 | x4 !>![Ac] z z2 ||[K:Ab] x8 | x8 | x8 | x8 | x8 | %53
 x8 | x8 | x8 | x8 | x8 | x8 | x8 | x8 | x8 | x8 | x4 C2 x2 ||[K:Eb] x8 | x8 | x8 | x8 | x8 | x8 | %70
 x8 | x8 | x8 | x8 | x8 ||[K:F] x8 | x8 | x8 | x8 | x8 | x8 | x8 | x8 | x8 | x8 | x8 | x8 || %87
[K:C] !>!A4 !>!E2 !>!A2 | !>!G4 !>!C2 !>!D2 | E^D E z z ^D E2 | CB, CE- E^D E2 | %91
 !>!A4 !>!E2 !>!A2 | !>!G4 !>!C2 !>!D2 | E^D E z z ^D E2 | E^D E z z ^D E2 | B4 G2 A2 | %96
 B4 B,2 (3^FGA | B4 G2 A2 | B4 B,2 (3^FGA | B4 A2 G2 | [^Fc]2 z2 x4 | x8 | x8 | x8 | x8 | x8 | x8 | %107
 x8 | x8 | x8 | x8 | x8 | x8 | x8 | x8 | x8 | x8 || x8 | x8 | x8 | x8 | x8 | x8 | x8 | x8 | x8 | %126
 x4 [CE]2 x2 | x8 | x8 | x8 | x8 | x8 | z2 [EA]2 z2 [GB]2 | x8 | z2 [Be]2 z2 [c^f]2 | x8 | x8 | %137
 x2 g>^f g2 G>^F | G2 x6 | x8 | x8 | x8 | x4 [CE]2 x2 | x8 | x8 | x8 | x8 || x8 | x8 | x8 | x8 | %151
 x8 | x8 | x8 | x8 | x8 | x8 | x8 | x8 | x8 | x8 | x8 | x8 | x8 | x8 | x8 | x8 | x8 | x8 | x8 | %170
 x8 ||[K:F] x8 | x8 | x8 | x8 | x8 | x8 | x8 | x8 | x8 | [_G_d]2 [C=E_B]2 [CEB]2 [CEB]2 | [Fc]8 | %182
 x8 | x8 | x8 | x4 [Fc]2 x2 | x8 |] %187
V:4
 x8 | x8 | x8 | x8 | x8 | x8 | x8 | x8 | x8 | x8 | x8 | x8 | x8 | x8 | x8 | x8 | x8 | x8 | x8 | %19
 x8 | x8 | x8 | x8 | x8 | x8 | x8 | x8 | x8 | x8 | x8 | x8 | x8 | x8 | x8 | x8 | x8 | x8 | x8 | %38
 x8 | x8 | x8 | x8 | x8 | x8 | x8 | x8 | x8 | x8 ||[K:Ab] F,,2 C,2 F, C,3 | B,,,4 x4 | x8 | x8 | %52
 F,,2 C,2 F, C,3 | B,,2 C,2 D,2 =D,2 | x8 | x8 | F,,2 G,,2 A,,2 =A,,2 | B,,2 C,2 D,2 =D,2 | x8 | %59
 x8 | F,,2 G,,2 A,,2 =A,,2 | x8 | G,,2 x6 | x8 ||[K:Eb] [C,,G,,]4 x4 | %65
 x2 [C,,C,]2 [B,,,B,,] [C,,C,]3 | [B,,,B,,]4 x4 | x8 | [C,,G,,]4 x4 | %69
 x2 [C,,C,]2 [B,,,B,,] [C,,C,]3 | [B,,,B,,]4 x4 | x8 | !>!G,,4 x4 | !>!G,,4 x4 | %74
 C,,2 !>!C,,,2 !>!C,,2 x2 ||[K:F] x8 | x8 | x8 | x8 | x8 | x8 | x8 | x8 | x8 | x8 | x8 | x8 || %87
[K:C] x8 | x8 | x8 | x8 | x8 | x8 | x8 | x8 | x8 | x8 | x8 | x8 | x8 | x8 | x8 | x8 | x8 | x8 | %105
 x8 | x8 | x8 | x8 | x8 | x8 | x8 | x8 | x8 | x8 | x8 | G,,8 || x8 | x8 | x8 | x8 | !trill)!G,,8 | %122
 ^F,,G,, ^G,,A,, ^A,, B,,3 | x8 | x8 | x8 | x8 | x8 | x8 | x8 | x8 | x8 | x8 | x8 | x8 | x8 | %136
[K:treble] x8 | x8 |[K:bass] x8 | x8 | x8 | x8 | x8 | x8 | x8 | x8 | x8 || x8 | x8 | x8 | x8 | x8 | %152
 x8 | x8 | x8 | [A,,C,]4 [A,,D,]4 | [A,,C,]6 x2 | [A,,C,]4 [A,,D,]4 | z2 A,,,C,, E,,A,, C,E, | %159
 [A,,C,]4 [A,,D,]3 z | [A,,C,]2 [A,,C,]2 [A,,D,]2 [A,,D,]2 | [A,,C,]2 [A,,C,]2 [A,,D,]2 [A,,D,]2 | %162
 [A,,C,]6 x2 | x8 | x4 [D,F,]4 | x8 | x4 [D,F,]4 | [A,,,E,,A,,]4 [C,,F,,C,]3 z | %168
 [A,,,E,,A,,]2 [A,,,E,,A,,]2 [C,,F,,C,]2 [C,,F,,C,]2 | %169
 [A,,,E,,A,,]2 [A,,,E,,A,,]2 [C,,F,,C,]2 [C,,F,,C,]2 | [A,,C,E,]2 C,6 ||[K:F] x8 | x8 | x8 | x8 | %175
 x8 | x8 | x8 | x8 | x8 | x8 | x8 | x8 | x8 | x8 | x8 |{/F,,} [F,,,F,,]8 |] %187
V:5
 x8 | x8 | x8 | x8 | x8 | x8 | x8 | x8 | x8 | x8 | x8 | x8 | x8 | x8 | x8 | x8 | x8 | x8 | x8 | %19
 x8 | x8 | x8 | x8 | x8 | x8 | x8 | x8 | x8 | x8 | x8 | x8 | x8 | x8 | x8 | x8 | x8 | x8 | x8 | %38
 x8 | x8 | x8 | x8 | x8 | x8 | x8 | x8 | x8 | x8 ||[K:Ab] x8 | x8 | x8 | x8 | x8 | x8 | x8 | x8 | %56
 x8 | x8 | x8 | x8 | x8 | x8 | x8 | x8 ||[K:Eb] [E,G,C]4 x4 | x8 | [_D,F,B,]4 x4 | x8 | %68
 [E,G,C]4 x4 | x8 | [_D,F,B,]4 x4 | x8 | !>![C,=E,G,]4 x4 | !>![D,F,G,]4 x4 | x8 ||[K:F] x8 | x8 | %77
 x8 | x8 | x8 | x8 | x8 | x8 | x8 | x8 | x8 | x8 ||[K:C] x8 | x8 | x8 | x8 | x8 | x8 | x8 | x8 | %95
 x8 | x8 | x8 | x8 | x8 | x8 | x8 | x8 | x8 | x8 | x8 | x8 | x8 | x8 | x8 | x8 | x8 | x8 | x8 | %114
 x8 | x8 | x8 || x8 | x8 | x8 | x8 | x8 | x8 | x8 | x8 | x8 | x8 | x8 | x8 | x8 | x8 | x8 | x8 | %133
 x8 | x8 | x8 |[K:treble] x8 | x8 |[K:bass] x8 | x8 | x8 | x8 | x8 | x8 | x8 | x8 | x8 || x8 | x8 | %149
 x8 | x8 | x8 | x8 | x8 | x8 | x8 | z2 A,,,C,, E,,A,, C,E, | x8 | x8 | x8 | x8 | x8 | %162
 z2 A,,,C,, E,,A,, C,E, | x8 | x8 | x8 | x8 | x8 | x8 | x8 | x4 =B,2 _B,2 ||[K:F] x8 | x8 | x8 | %174
 x8 | x8 | x8 | x8 | x8 | x8 | x8 | x8 | x8 | x8 | x8 | x8 | x8 |] %187

